dist/img/svg/login.svg

<svg width="18" height="18" viewBox="0 0 18 18" xmlns="http://www.w3.org/2000/svg">
<path d="M9.0088 1.1261C9.46628 1.1261 9.93548 1.21994 10.4164 1.40762C10.9091 1.58358 11.3372 1.81232 11.7009 2.09384C12.0645 2.36364 12.3636 2.66862 12.5982 3.0088C12.8328 3.33724 12.9501 3.64809 12.9501 3.94135V6.7566C12.9501 7.42522 12.8094 8.17009 12.5279 8.9912C12.2463 9.81232 11.8299 10.434 11.2786 10.8563C11.1848 10.9384 11.1026 11.0381 11.0323 11.1554C10.9619 11.261 10.9091 11.3783 10.8739 11.5073C10.8504 11.6246 10.8446 11.7478 10.8563 11.8768C10.915 12.2991 11.132 12.5982 11.5073 12.7742L16.4164 15.0968C16.4164 15.0968 16.4282 15.1026 16.4516 15.1144C16.4751 15.1144 16.4985 15.1202 16.522 15.132C16.5455 15.1437 16.5748 15.1613 16.61 15.1848C16.6452 15.2082 16.6745 15.2375 16.6979 15.2727C16.7331 15.2962 16.7625 15.3314 16.7859 15.3783C16.8211 15.4252 16.8446 15.4839 16.8563 15.5543C16.868 15.6246 16.8739 15.7009 16.8739 15.783V16.8739L1.1261 16.8915V15.7478C1.1261 15.4545 1.28446 15.2375 1.60117 15.0968L6.54545 12.7566C6.92082 12.5806 7.13196 12.2874 7.17889 11.8768C7.23754 11.4545 7.10264 11.1144 6.77419 10.8563C6.2346 10.4223 5.81232 9.79472 5.50733 8.97361C5.21408 8.14076 5.06745 7.40176 5.06745 6.7566V3.94135C5.06745 3.55425 5.261 3.1437 5.64809 2.70968C6.03519 2.26393 6.53959 1.88856 7.16129 1.58358C7.78299 1.27859 8.39883 1.1261 9.0088 1.1261ZM9.0088 0C8.19941 0 7.39589 0.199413 6.59824 0.59824C5.81232 0.985337 5.17302 1.48974 4.68035 2.11144C4.18768 2.72141 3.94135 3.33138 3.94135 3.94135V6.7566C3.94135 7.51906 4.1173 8.39883 4.46921 9.39589C4.83284 10.3812 5.36657 11.1613 6.07038 11.7361L1.1261 14.0762C1.09091 14.088 1.04985 14.1056 1.00293 14.129C0.956012 14.1525 0.868035 14.2053 0.739003 14.2874C0.609971 14.3695 0.492669 14.4516 0.387097 14.5337C0.293255 14.6158 0.205279 14.7214 0.123167 14.8504C0.0410557 14.9677 0 15.0792 0 15.1848V16.8915C0 17.1965 0.105572 17.4545 0.316716 17.6657C0.539589 17.8886 0.809384 18 1.1261 18H16.8915C17.1965 18 17.4545 17.8886 17.6657 17.6657C17.8886 17.4545 18 17.1965 18 16.8915V15.1848C18 15.0674 17.9589 14.9501 17.8768 14.8328C17.8065 14.7038 17.7126 14.5982 17.5953 14.5161C17.4897 14.4223 17.3842 14.3402 17.2786 14.2698C17.173 14.1994 17.0792 14.1466 16.9971 14.1114L16.8915 14.0762L11.9824 11.7361C12.6862 11.1848 13.2082 10.4223 13.5484 9.44868C13.9003 8.47507 14.0762 7.57771 14.0762 6.7566V3.94135C14.0762 3.48387 13.9238 3.02053 13.6188 2.55132C13.3255 2.07038 12.9443 1.64223 12.4751 1.26686C12.0059 0.891496 11.4604 0.58651 10.8387 0.351906C10.217 0.117302 9.60704 0 9.0088 0Z"/>
</svg>

<svg width="18" height="18" viewBox="0 0 18 18" xmlns="http://www.w3.org/2000/svg"><path d="M9.009 1.126c.457 0 .926.094 1.407.282.493.176.921.404 1.285.686.364.27.663.575.897.915.235.328.352.64.352.932v2.816c0 .668-.14 1.413-.422 2.234s-.698 1.443-1.25 1.865a1.242 1.242 0 0 0-.246.3 1.19 1.19 0 0 0-.158.351c-.024.118-.03.24-.018.37.059.422.276.721.651.897l4.91 2.323.035.017c.023 0 .046.006.07.018.024.012.053.03.088.053a.312.312 0 0 1 .088.088.266.266 0 0 1 .088.105.397.397 0 0 1 .07.176c.012.07.018.147.018.229v1.09l-15.748.018v-1.143c0-.293.158-.51.475-.651l4.944-2.34c.376-.176.587-.47.634-.88.059-.423-.076-.763-.405-1.02-.54-.435-.962-1.062-1.267-1.883-.293-.833-.44-1.572-.44-2.217V3.94c0-.387.194-.797.581-1.231.387-.446.892-.821 1.513-1.126.622-.305 1.238-.458 1.848-.458zm0-1.126c-.81 0-1.613.2-2.41.598-.787.387-1.426.892-1.919 1.513-.492.61-.739 1.22-.739 1.83v2.816c0 .762.176 1.642.528 2.639.364.985.898 1.765 1.601 2.34l-4.944 2.34a.985.985 0 0 0-.123.053 3.717 3.717 0 0 0-.264.158 4.57 4.57 0 0 0-.352.247 1.455 1.455 0 0 0-.264.316.59.59 0 0 0-.123.335v1.707c0 .305.106.563.317.774.223.223.492.334.81.334H16.89c.306 0 .564-.111.775-.334.223-.212.334-.47.334-.774v-1.707a.61.61 0 0 0-.123-.352.915.915 0 0 0-.282-.317 2.906 2.906 0 0 0-.316-.246c-.106-.07-.2-.123-.282-.159l-.105-.035-4.91-2.34c.704-.551 1.226-1.314 1.566-2.287.352-.974.528-1.871.528-2.692V3.94c0-.457-.152-.92-.457-1.39a4.928 4.928 0 0 0-1.144-1.284A5.972 5.972 0 0 0 10.84.352 5.161 5.161 0 0 0 9.009 0z"/></svg>
